X: 24
T: Shutter's Hornpipe New Way
R: reel
M: C
L: 1/8
Z: 2010 John Chambers <jc:trillian.mit.edu>
B: 19th century tune book collected by W.A. Cocks.
F: http://www.asaplive.com/archive/browse_by_collection.asp
N: The asaplive.com web site is complex, and links to its files don't usually work.
K: A
E2 |\
A3B ABcd | ecA2 A2Bc | B3c Be^dc | BAGF E2E2 |\
A3B ABcd | edcB Acea | gbeg fa^df | e2e2 e2 :|
|: E2 |\
e3d cdBc | ABGA F2F2 | f3e decd | BcAB G2fg |\
agfe dcBA | GFED C2E2 | FAGB Afed | c2A2 A2 :|


%%sep 5 1 500

